(Generated NC Program)
G0 X3.0 Y1.8
G1 X3.0 Y3.0
G1 X3.0 Y3.2
G1 X3.0 Y2.6
G1 X6.6 Y1.8
G1 X9.6 Y1.8
G1 X10.2 Y1.4
G1 X10.8 Y1.8
G1 X11.4 Y1.4
G1 X5.4 Y6.6
G1 X5.4 Y14.0
G1 X5.4 Y13.4
G1 X7.2 Y23.6
G1 X6.6 Y23.6
G1 X9.6 Y6.0
G1 X8.4 Y5.6
G1 X8.4 Y6.0
G1 X10.8 Y6.0
G1 X11.4 Y24.0
G1 X11.4 Y27.6
G1 X11.4 Y26.4
G1 X5.4 Y23.6
G1 X3.0 Y25.8
G1 X3.0 Y27.0
G1 X3.6 Y28.4
G1 X3.0 Y9.8
G1 X3.0 Y3.6
G1 X5.4 Y9.0
G1 X3.0 Y8.6
G1 X3.0 Y10.2
G1 X3.0 Y6.6
G1 X3.6 Y5.6
G1 X3.0 Y4.4
G1 X3.0 Y2.0
G1 X3.0 Y1.4
G1 X5.4 Y10.4
G1 X10.8 Y3.6
G1 X10.8 Y5.0
G1 X3.0 Y9.2
G1 X5.4 Y6.0
G1 X5.4 Y6.8
G1 X3.0 Y4.8
G1 X4.8 Y5.6
G1 X4.8 Y13.8
G1 X4.8 Y14.0
G1 X5.4 Y11.0
G1 X5.4 Y13.2
G1 X3.0 Y14.0
G1 X3.6 Y13.8
G1 X3.0 Y23.6
G1 X3.0 Y26.0
G1 X3.0 Y26.6
G1 X3.0 Y26.4
G1 X3.0 Y27.2
G0 Z1.0
G1 X3.0 Y6.8
G0 Z0.0
G1 X3.0 Y6.2
G1 X3.0 Y5.6
G1 X3.0 Y9.0
G1 X11.4 Y4.8
G1 X5.4 Y7.8
G1 X3.0 Y3.8
G1 X11.4 Y4.2
G1 X3.0 Y9.6
G1 X5.4 Y9.2
G1 X3.0 Y4.2
G0 Z1.0
G1 X9.6 Y28.8
G0 Z0.0
G1 X10.2 Y28.8
G1 X10.8 Y28.4
G1 X10.8 Y28.8
G1 X9.6 Y28.4
G1 X10.2 Y28.4
G1 X7.2 Y28.4
G1 X7.2 Y28.8
G1 X6.0 Y28.8
G1 X6.6 Y28.4
G1 X7.8 Y28.8
G1 X7.8 Y28.4
G1 X8.4 Y28.8
G1 X7.8 Y23.6
G1 X9.0 Y6.0
G1 X6.6 Y5.6
G1 X6.6 Y6.0
G1 X9.6 Y23.4
G1 X10.2 Y23.4
G1 X9.6 Y23.6
G1 X9.0 Y23.6
G1 X10.2 Y23.6
G1 X5.4 Y28.4
G1 X4.8 Y28.4
G1 X4.2 Y28.4
G1 X3.0 Y28.8
G0 Z1.0
G1 X6.0 Y1.4
G0 Z0.0
G1 X6.6 Y1.4
G1 X5.4 Y8.4
G1 X3.0 Y10.4
G1 X5.4 Y9.8
G1 X10.8 Y4.2
G1 X10.2 Y1.8
G1 X10.8 Y2.6
G1 X10.8 Y3.0
G1 X10.8 Y3.2
G1 X10.8 Y2.4
G1 X5.4 Y7.2
G1 X5.4 Y5.6
G1 X3.0 Y7.8
G1 X11.4 Y3.6
G1 X10.8 Y4.4
G1 X3.0 Y8.4
G1 X5.4 Y7.4
G1 X3.0 Y7.4
G1 X10.8 Y4.8
G1 X5.4 Y6.2
G1 X3.0 Y5.4
G1 X3.0 Y5.0
G1 X5.4 Y8.6
G1 X4.2 Y5.6
G1 X10.8 Y3.8
G1 X5.4 Y9.6
G1 X5.4 Y8.0
G1 X3.0 Y7.2
G0 Z1.0
G1 X4.2 Y28.8
G0 Z0.0
G1 X5.4 Y28.8
G1 X4.8 Y28.8
G1 X3.6 Y28.8
G1 X3.0 Y28.2
G1 X3.0 Y28.4
G1 X3.0 Y27.6
G1 X3.0 Y27.8
G1 X3.0 Y25.2
G1 X3.0 Y25.4
G1 X3.0 Y24.6
G1 X3.0 Y24.8
G1 X4.2 Y23.6
G1 X3.6 Y23.6
G1 X3.6 Y23.4
G1 X3.0 Y23.4
G1 X6.6 Y23.4
G1 X7.2 Y23.4
G1 X3.0 Y8.0
G1 X5.4 Y10.2
G1 X5.4 Y1.8
G1 X6.0 Y1.8
G1 X7.2 Y1.4
G1 X9.0 Y1.4
G1 X9.0 Y1.8
G1 X7.8 Y1.4
G1 X8.4 Y1.4
G1 X9.6 Y1.4
G1 X10.8 Y1.4
G1 X11.4 Y1.8
G1 X3.0 Y6.0
G1 X7.8 Y5.6
G1 X7.8 Y6.0
G1 X7.2 Y5.6
G1 X7.2 Y6.0
G1 X10.8 Y5.4
G1 X10.8 Y5.6
G1 X11.4 Y6.0
G1 X11.4 Y5.4
G1 X10.2 Y6.0
G1 X10.2 Y5.6
G1 X9.6 Y5.6
G1 X9.0 Y5.6
G1 X6.0 Y5.6
G1 X6.0 Y6.0
G1 X10.8 Y23.4
G1 X11.4 Y23.4
G1 X10.8 Y23.6
G1 X11.4 Y24.6
G1 X11.4 Y25.2
G1 X9.0 Y28.4
G1 X9.0 Y28.8
G1 X8.4 Y28.4
G1 X6.6 Y28.8
G1 X6.0 Y28.4
G1 X6.0 Y23.6
G1 X5.4 Y23.4
G1 X4.8 Y23.4
G1 X4.8 Y23.6
G0 Z1.0
G1 X4.8 Y1.4
G0 Z0.0
G1 X4.8 Y1.8
G1 X5.4 Y1.4
G1 X7.2 Y1.8
G1 X7.8 Y1.8
G1 X8.4 Y1.8
G1 X10.8 Y2.0
G1 X11.4 Y2.0
G1 X11.4 Y2.4
G1 X11.4 Y2.6
G1 X11.4 Y3.0
G1 X11.4 Y3.2
G0 Z1.0
G1 X11.4 Y28.8
G0 Z0.0
G1 X11.4 Y28.2
G1 X11.4 Y27.0
G1 X11.4 Y25.8
G1 X9.0 Y23.4
G1 X8.4 Y23.4
G1 X8.4 Y23.6
G1 X7.8 Y23.4
G1 X6.0 Y23.4
G1 X4.2 Y23.4
G1 X3.0 Y24.2
G1 X3.0 Y24.0
G1 X3.6 Y14.0
G1 X3.0 Y13.8
G1 X3.0 Y13.4
G1 X3.0 Y12.8
G1 X3.0 Y13.2
G1 X3.0 Y12.6
G1 X3.0 Y12.2
G1 X3.0 Y12.0
G1 X3.0 Y11.4
G1 X3.0 Y11.6
G1 X5.4 Y10.8
G1 X5.4 Y11.4
G1 X5.4 Y11.6
G1 X5.4 Y12.0
G1 X5.4 Y12.2
G1 X5.4 Y12.6
G1 X5.4 Y12.8
G1 X5.4 Y13.8
G1 X3.0 Y2.4
G1 X3.6 Y1.8
G1 X3.6 Y1.4
G1 X4.2 Y1.4
G1 X4.2 Y1.8
G1 X4.2 Y14.0
G1 X4.2 Y13.8
G1 X3.0 Y11.0
G1 X3.0 Y10.8
G1 X3.0 Y1.8